X: 164
T: The Jumpy Jig
T: Jig, D
L: 1/16
M: 6/8
K: D
|: f4A2 A2F2A2| f4d2 e2f2g2| f4A2 A2F2A2| d2e2d2 d2B2A2| f4A2 A2F2A2| f4d2 e2f2g2| a2b2a2 f4e2| d2e2d2 d2B2A2:| 
|: f4d2 e4d2| f4d2 e2d2B2| f4d2 e4d2| d2e2d2 d2B2A2| f4d2 e4d2| f4d2 e2f2g2| a2b2a2 f4e2| d2e2d2 d2B2A2:| 
D: Wendy MacIsaac, That's What You Get, WMT004
